X:1910
T:Farrell O'Gara
O:england
R:Reel
S:Josie Nugent,Clare (fiddle)
D:Private tape
N:As played
M:4/4
K:D
A,3B, DEFA | BdAF EFGA | dzcA BdAF | EGFD EB, {CB,A,}B,2 |
A, {CA,G,}A,2B, DEFA | BdAF EFGA | d {edc}d2A {dBA}B2 AF | GBAG FDDB, |
A,D(3.D.D.D A,DFA | BdAF EFGA | d {edc}d2A {dBA}B2 AF | GBAG FDDB, |
A, {CA,G,}A,2B, DEFA | BdAF EFGA | dzcA BdAF | GBAG FDDe ||
fd(3.d.d.d fdge | {a}fedf eB {dBA}B2 | d {edc}d2A Bcde | fedA cdeg |
fd(3.d.d.d fdge | {a}fedf eB {dBA}B2 | d {edc}d2A {dBA}B2 AF | GBAG FDDe |
fd(3.d.d.d fdge | {a}fedf eB {dBA}B2 | d {edc}d2A Bcde | f2df e3B3e |
{afe}f2 af edBc | d3D3A {d}BAFD | A,D(3.D.D.D A,DFA | BdAF D4 ||
